src/main/resources/icons/AllIcons/actions/GroupByClass_dark.svg

<!-- Copyright 2000-2021 JetBrains s.r.o. Use of this source code is governed by the Apache 2.0 license that can be found in the LICENSE file. -->
<svg xmlns="http://www.w3.org/2000/svg" width="16" height="16" viewBox="0 0 16 16">
  <g fill="none" fill-rule="evenodd">
    <circle cx="8" cy="7.8" r="5" fill="#40B6E0" fill-opacity=".6" fill-rule="nonzero"/>
    <path fill="#231F20" fill-rule="nonzero" d="M10.3714073,9.54921622 L9.88891399,9.06174847 C9.45444485,9.51854567 8.84205072,9.76896736 8.20763413,9.74926149 C7.16467249,9.70343797 6.35572078,8.83348736 6.39853415,7.80374657 L6.39853415,7.78910589 C6.37979102,7.28518568 6.56586755,6.79477552 6.91535372,6.4270127 C7.26483989,6.05924987 7.7487377,5.84464885 8.25935916,5.83096756 C8.8625807,5.82455119 9.44489928,6.04890291 9.884247,6.45699325 L10.3424461,5.97031391 C9.79924761,5.43307301 9.05591193,5.14036051 8.28727631,5.16102424 L8.12502489,5.16102424 C7.40199249,5.14479606 6.70251364,5.41520499 6.18292109,5.91181495 C5.66332854,6.40842491 5.36694078,7.08983347 5.36000013,7.80374657 L5.36000013,7.81817583 C5.36511983,9.27410398 6.56432995,10.4505504 8.03917196,10.4464909 L8.26547621,10.4464909 C9.06536096,10.4595871 9.83238832,10.1327796 10.3714073,9.54921622 Z" opacity=".7"/>
    <rect width="1" height="12" x="1" y="2" fill="#AFB1B3"/>
    <rect width="2" height="1" x="2" y="2" fill="#AFB1B3"/>
    <rect width="2" height="1" x="2" y="13" fill="#AFB1B3"/>
    <rect width="1" height="12" x="14" y="2" fill="#AFB1B3"/>
    <rect width="3" height="1" x="12" y="2" fill="#AFB1B3"/>
    <rect width="2" height="1" x="12" y="13" fill="#AFB1B3"/>
  </g>
</svg>

<svg xmlns="http://www.w3.org/2000/svg" width="16" height="16" viewBox="0 0 16 16"><rect id="frame" width="16" height="16" fill="none"/><g fill="none" fill-rule="evenodd"><circle cx="8" cy="7.8" r="5" fill="#40B6E0" fill-opacity=".6" fill-rule="nonzero"/><path fill="#231F20" fill-rule="nonzero" d="M10.371 9.55l-.482-.488a2.225 2.225 0 0 1-1.681.687 1.88 1.88 0 0 1-1.81-1.945v-.015a1.876 1.876 0 0 1 .517-1.362c.35-.368.834-.582 1.344-.596a2.351 2.351 0 0 1 1.625.626l.458-.487a2.815 2.815 0 0 0-2.055-.809h-.162a2.723 2.723 0 0 0-1.942.75 2.653 2.653 0 0 0-.823 1.893v.014c.005 1.456 1.204 2.633 2.68 2.628h.225c.8.014 1.567-.313 2.106-.897z" opacity=".7"/><path fill="#AFB1B3" d="M1 2h1v12H1z"/><path fill="#AFB1B3" d="M2 2h2v1H2z"/><path fill="#AFB1B3" d="M2 13h2v1H2z"/><path fill="#AFB1B3" d="M14 2h1v12h-1z"/><path fill="#AFB1B3" d="M12 2h3v1h-3z"/><path fill="#AFB1B3" d="M12 13h2v1h-2z"/></g></svg>
